X:1455
T:Dark girl dressed in blue
O:england
R:Polka
M:2/4
K:G
A3G F2G2|ABcA B2G2|A3G F2G2|A2d>c d4|\
A3G F2G2|ABcA B2G2|A2d2 cdef|d4 d4:|
|:\
f2fa g2f2|d2dB A2d2|f3a g2f2|d4 d3e|\
f2fa g2f2|d2dc A2B2|c3B c2A2|G4 G4:|


